!!!!SEGMENT: pl-kk--kk-i-1--049-001_szadek-tomasz--offitium-in-melodiam-motetae-pisneme-kyrie.krn
!!!cenid: 15xx:765
!!!COM: Szadek, Tomasz
!!!COM-rismID: pe30020506
!!!CDT: ~1550-1612
!!!CNT: Polish
!!!OPR: Offitium in melodiam motetae Pisneme
!!!OTL: Kyrie
!!!OMV: 001
!!!PDT:
!!!AGN:
!!!SMS-siglum: PL-Kk
!!!SMS-shelfmark: Kk.I.1
!!!SMS-shelfwork: 049-001 M
!!!SMS-variant:
!!!SMS-altvar:
!!!NIFC-rismSourceID: 300257954
!!!NIFC-rismChildID: 300258003
!!!NIFC-islandoraID: pl-kk:1
!!!URL-pdf-islandora: https://repozytorium.nifc.pl/islandora/object/pl-kk%3A1/datastream/PDF/view
!!!URL-scan: https://polish.musicsources.pl/pl/lokalizacje/galeria/rekopisy/5736 @EN{Scan on Polish Music Sources Website} @PL{Skany w portalu Dziedzictwo Muzyki Polskiej w otwartym dostępie}
!!!ONB-nifc: UWAGA: Cantus (s. 152v-160r, skan 0155-0162), Altus (s. 148r-156r, skan 0341-0349), Tenor (s. 127v-136r, skan 0518-0526), Bassus (s. 139v-146v, skan 0702-0709). Części Mszy: 1. Kyrie, 2. Et in terra, 3. Patrem, 4. Sanctus, 5. Agnus Dei
!!!AIN: 1 alto 1 bass 1 soprn 1 tenor
!!!key: G:mix
**kern	**text	**mod-text	**kern	**text	**mod-text	**kern	**text	**mod-text	**kern	**text	**mod-text
*part4	*part4	*part4	*part3	*part3	*part3	*part2	*part2	*part2	*part1	*part1	*part1
*staff4	*staff4	*staff4	*staff3	*staff3	*staff3	*staff2	*staff2	*staff2	*staff1	*staff1	*staff1
*I"BASSVS	*	*	*I"TENOR	*	*	*I"ALTVS	*	*	*I"CANTVS	*	*
*mI"Basso	*	*	*mI"Tenore	*	*	*mI"Alto	*	*	*mI"Soprano	*	*
*I'B	*	*	*I'T	*	*	*I'A	*	*	*I'S	*	*
*ICvox	*	*	*ICvox	*	*	*ICvox	*	*	*ICvox	*	*
*Ibass	*	*	*Itenor	*	*	*Ialto	*	*	*Isoprn	*	*
*clefF4	*	*	*clefC4	*	*	*clefC3	*	*	*clefC2	*	*
*	*	*	*mclefGv2	*	*	*mclefG2	*	*	*mclefG2	*	*
*k[b-]	*	*	*k[b-]	*	*	*k[b-]	*	*	*k[b-]	*	*
*G:mix	*	*	*G:mix	*	*	*G:mix	*	*	*G:mix	*	*
*M2/1	*	*	*M2/1	*	*	*M2/1	*	*	*M2/1	*	*
*met(C|)	*	*	*met(C|)	*	*	*met(C|)	*	*	*met(C|)	*	*
*mmet(c|)	*	*	*mmet(c|)	*	*	*mmet(c|)	*	*	*mmet(c|)	*	*
=1-	=1-	=1-	=1-	=1-	=1-	=1-	=1-	=1-	=1-	=1-	=1-
*xywh-#702:1382,479,4505,1021	*	*	*xywh-#518:1247,435,4336,991	*	*	*xywh-#341:5932,515,4469,1043	*	*	*xywh-#155:1195,501,4649,1062	*	*
!	!	!	!	!	!	!LO:TX:a:t=Piſneme oficium:mod=	!	!	!LO:TX:a:t=Offitium in melodiam motet(ae) Piſneme, Thomas a Szadek V...:color=red:problem=dalszy ciąg inskrypcji nieczytelny:mod=	!	!
00r	.	.	0r	.	.	1d	KI-	Ky-	0r	.	.
.	.	.	.	.	.	2.g\	-ri-	.	.	.	.
.	.	.	.	.	.	4g\	-e-	-ri-	.	.	.
=2-	=2-	=2-	=2-	=2-	=2-	=2-	=2-	=2-	=2-	=2-	=2-
!LO:TX:a:t=Offitium \nPiſneme\n1580.:color=red:mod=	!	!	!LO:TX:a:t=Offitium \nmelodiam mo\ntet(ae) Piſneme\nThom(ae) Szadek\n1580.:mod=	!	!	!	!	!	!	!	!
.	.	.	1G	KI-	Ky-	2g\	-ley-	-e	1r	.	.
.	.	.	.	.	.	2g\	-ſon	e-	.	.	.
*	*	*	*	*	*	*	*ij	*	*	*	*
.	.	.	2.d\	-ri-	.	1.f	Ki-	-le-	2r	.	.
.	.	.	.	.	.	.	.	.	2d/	KI-	Ky-
.	.	.	4d\	-e	-ri-	.	.	.	.	.	.
=3-	=3-	=3-	=3-	=3-	=3-	=3-	=3-	=3-	=3-	=3-	=3-
00r	.	.	2d\	e-	-e	.	.	.	2.a\	-ri-	.
.	.	.	2d\	-ley-	e-	2f\	-ri-	-i-	.	.	.
.	.	.	.	.	.	.	.	.	4a\	-e	-ri-
.	.	.	2c\	-ſon	-le-	2e\	.	-son	2a\	e-	-e
*	*	*	*	*ij	*	*	*	*ij	*	*	*
.	.	.	2A\	Ki-	-i-	2c\	.	e-	2a\	-ley-	e-
=4-	=4-	=4-	=4-	=4-	=4-	=4-	=4-	=4-	=4-	=4-	=4-
.	.	.	2c\	-ri-	-son	2e\	-e	-le-	2g\	-ſon	-lei-
*	*	*	*	*	*ij	*	*	*	*	*ij	*
.	.	.	2G/	-e-	e-	4d\	e-	.	1b-	e-	.
.	.	.	.	.	.	4e\	.	.	.	.	.
.	.	.	2d\	-ley-	-le-	4f\	.	.	.	.	.
.	.	.	.	.	.	4d\	.	.	.	.	.
!	!	!	!LO:SIC:s=2e-i	!	!	!	!	!	!	!	!
.	.	.	2e\	.	-i-	1g	-le-	.	4a\	-ley-	.
.	.	.	.	.	.	.	.	.	4g\	.	.
=5-	=5-	=5-	=5-	=5-	=5-	=5-	=5-	=5-	=5-	=5-	=5-
1D	KI-	Ky-	1d	-ſon	-ſon	.	.	.	2a\	-ſon	.
*	*	*	*	*Xij	*Xij	*	*	*	*	*Xij	*
!	!	!	!	!	!	!LO:SIC:s=2f#i	!	!	!	!	!
.	.	.	.	.	.	2f\	-y-	-i-	2a\	Ki-	-ſon
2.G\	-ri-	.	2r	.	.	1g	-ſon	-ſon	2.b-\	-ri-	Ky-
*	*	*	*custos:d	*	*	*	*	*	*	*	*
.	.	.	2G/	Ki-	Ky-	.	.	.	.	.	.
4G\	-e	-ri-	.	.	.	.	.	.	4b-\	-e	-ri-
*	*	*	*	*	*	*	*Xij	*	*	*	*
!	!	!	!LO:LB:g=original	!	!	!	!	!	!	!	!
=6-	=6-	=6-	=6-	=6-	=6-	=6-	=6-	=6-	=6-	=6-	=6-
*	*	*	*xywh-#518:1233,1258,4343,829	*	*	*	*	*	*	*	*
2G\	e-	-e	2.d\	-ri-	.	2r	.	.	1b-	e-	-e
2B-\	-ley-	e-	.	.	.	2f\	.	e-	.	.	.
.	.	.	4d\	-e	-ri-	.	.	.	.	.	.
2.F\	-ſon	-le-	4c\	e-	-e	1.f	.	-le-	4a\	.	e-
.	.	.	4B-\	.	.	.	.	.	4g\	.	.
.	.	.	4c\	.	.	.	.	.	4a\	.	.
*	*	*	*	*	*	*	*	*	*custos:a	*	*
*	*ij	*	*	*	*	*	*	*	*	*	*
4BB-/	e-	-i-	4d\	.	.	.	.	.	4b-\	.	.
!	!	!	!	!	!	!	!	!	!LO:LB:g=original	!	!
=7-	=7-	=7-	=7-	=7-	=7-	=7-	=7-	=7-	=7-	=7-	=7-
*	*	*	*	*	*	*	*	*	*xywh-#155:1431,1432,4452,832	*	*
2F\	-ley-	-son	2c\	-lei-	.	.	.	.	2a\	.	.
*	*	*ij	*	*	*	*custos:d	*	*	*	*	*
2G\	.	e-	2B-\	-ſon	e-	2e\	.	.	2g\	-lei-	-lei-
!	!	!	!	!	!	!LO:LB:g=original	!	!	!	!	!
*	*	*	*	*	*	*xywh-#341:5972,1428,4324,839	*	*	*	*	*
2D/	.	-lei-	2.A/	.	-le-	2d\	.	.	2a\	-ſon	-ſon
*	*	*	*	*	*	*	*	*	*	*ij	*ij
4F\	.	.	.	.	.	2c\	.	.	2A/	Ki-	Ky-
4E\	.	.	4G/	.	-i-	.	.	.	.	.	.
=8-	=8-	=8-	=8-	=8-	=8-	=8-	=8-	=8-	=8-	=8-	=8-
4D/	.	.	4F/	.	-son	2B-/	.	.	2.d/	-ri-	.
4C/	.	.	4E/	.	.	.	.	.	.	.	.
4BB-/	.	.	1F	.	.	1A	.	.	.	.	.
4AA/	.	.	.	.	.	.	.	.	4d/	-e	-ri-
*custos:AA	*	*	*	*	*	*	*	*	*	*	*
1BB-	.	.	.	.	.	.	.	.	2d/	e-	-e
.	.	.	4E/	.	.	2G/	.	-i-	2d/	-lei-	e-
.	.	.	4D/	.	.	.	.	.	.	.	.
!LO:LB:g=original	!	!	!	!	!	!	!	!	!	!	!
=9-	=9-	=9-	=9-	=9-	=9-	=9-	=9-	=9-	=9-	=9-	=9-
*xywh-#702:1443,1298,4261,892	*	*	*	*	*	*	*	*	*	*	*
2AA/	-ſon	-ſon	0A	.	.	2A/	.	-son	2.c/	-ſon	-le-
*	*Xij	*Xij	*	*	*	*	*	*Xij	*	*	*
2AA/	Ki-	Ky-	.	.	.	2e\	Ki-	Ky-	.	.	.
.	.	.	.	.	.	.	.	.	4B-/	.	-i-
2.D/	-ri-	.	.	.	.	2.f\	-ri-	.	2A/	.	-son
.	.	.	.	.	.	.	.	.	2d/	Ki-	Ky-
4D/	-e	-ri-	.	.	.	4f\	-e-	-ri-	.	.	.
=10-	=10-	=10-	=10-	=10-	=10-	=10-	=10-	=10-	=10-	=10-	=10-
2D/	e-	-e	2r	.	.	1f	-le-	-e	2.a\	-ri-	.
2F\	-lei-	e-	2c\	.	[e-	.	.	.	.	.	.
.	.	.	.	.	.	.	.	.	4a\	-e	-ri-
2.C/	-ſon	-le-	1.c	.	-lei-	2.e\	-i-	[Ky-	4g\	e-	-e
.	.	.	.	.	.	.	.	.	4f\	.	.
.	.	.	.	.	.	.	.	.	4g\	-lei-	.
4C/	.	-i-	.	.	.	4e\	-ſon	-ri-	4a\	.	.
=11-	=11-	=11-	=11-	=11-	=11-	=11-	=11-	=11-	=11-	=11-	=11-
2C/	.	-ri-	.	.	.	2e\	.	-e	2g\	-ſon	.
*	*	*	*	*	*	*	*	*	*	*Xij	*Xij
2BB-/	.	-e	2d\	.	.	2f\	.	e-	2d/	Ki-	Ky-
2C/	.	e-	4c\	.	.	2e\	.	le-	2e/	-ri-	.
.	.	.	4B-\	.	.	.	.	.	.	.	.
2D/	.	-lei-	4A/	.	.	1d	.	.	2f/	-e-	-ri-
.	.	.	4G/	.	.	.	.	.	.	.	.
=12-	=12-	=12-	=12-	=12-	=12-	=12-	=12-	=12-	=12-	=12-	=12-
*	*	*	*	*	*	*	*	*	*custos:d	*	*
1AA	.	-son]	1A	.	.	.	.	.	1e	-lei-	-e
!	!	!	!	!	!	!LO:SIC:s=2c#i	!	!	!	!	!
.	.	.	.	.	.	2c/	.	-i-	.	.	.
!	!	!	!	!	!	!	!	!	!LO:LB:g=original	!	!
*	*	*	*	*	*	*	*	*	*xywh-#155:1497,2128,4321,898	*	*
*	*ij	*ij	*	*	*	*	*	*	*	*	*
1D	Ki-	Ky-	2F/	.	-son]	2d\	.	-son	2d/	-ſon	.
*	*	*	*custos:B-	*	*	*	*	*	*	*	*
.	.	.	2A/	Ki-	e-	1d	.	Ky-	2f\	.	e-
!	!	!	!LO:LB:g=original	!	!	!	!	!	!	!	!
=13-	=13-	=13-	=13-	=13-	=13-	=13-	=13-	=13-	=13-	=13-	=13-
*	*	*	*xywh-#518:1301,1966,4214,944	*	*	*	*	*	*	*	*
2G\	-ri-	.	2B-/	-ri-	-lei-	.	.	.	2g\	.	-le-
2F\	.	-ri-	4A/	-e-	.	2f\	.	-ri-	2.a\	.	.
.	.	.	4B-/	.	.	.	.	.	.	.	.
!	!	!	!	!	!	!LO:SIC:s=2e-i	!	!	!	!	!
2C/	-e	-e	4c\	.	.	2e\	.	-e	.	.	.
.	.	.	4B-\	.	.	.	.	.	4g\	.	.
2E-X\	e-	e-	4A/	.	.	2c\	.	e-	1g	.	.
.	.	.	4G/	.	.	.	.	.	.	.	.
=14-	=14-	=14-	=14-	=14-	=14-	=14-	=14-	=14-	=14-	=14-	=14-
1D	-lei-	-lei-	1A	-ley-	.	1d	.	-lei-	.	.	.
!	!	!	!	!	!	!	!	!	!LO:SIC:s=2f#i	!	!
.	.	.	.	.	.	.	.	.	2f\	.	-i-
!	!	!	!	!	!	!LO:MO:mod=!null:null	!	!	!	!	!
!	!	!	!	!	!	!LO:N:acc=#	!	!	!	!	!
!	!	!	!	!	!	!LO:TX:t=P:problem=# below	!	!	!	!	!
1GG;l	-ſon	-ſon.	1G;l	-ſon	-ſon.	1Bn;l	.	-son.]	1g;<l	.	-son.
*	*Xij	*Xij	*	*	*	*	*	*	*	*	*
!LO:LB:g=original	!	!	!	!	!	!LO:LB:g=original	!	!	!	!	!
=15||	=15||	=15||	=15||	=15||	=15||	=15||	=15||	=15||	=15||	=15||	=15||
*xywh-#702:1477,2062,4329,899	*	*	*	*	*	*xywh-#341:5860,2090,4429,931	*	*	*	*	*
1D	Chri-	Chri-	1F	Chri-	Chri-	1A	Chri-	Chri-	1d	Chri-	Chri-
4BB-/	.	.	1B-	-ste	-ste	1d	-ſte	-ſte	2f\	-ste	-ste
4C/	.	.	.	.	.	.	.	.	.	.	.
4D/	-ste	-ste	.	.	.	.	.	.	2.f\	e-	e-
4E/	.	.	.	.	.	.	.	.	.	.	.
=16-	=16-	=16-	=16-	=16-	=16-	=16-	=16-	=16-	=16-	=16-	=16-
2F\	e-	.	2A/	e-	e-	2c/	e-	e-	.	.	.
.	.	.	.	.	.	.	.	.	4e/	.	.
2G\	-lei-	e-	2G/	-lei-	-lei-	2B-/	-ley-	-lei-	4d/	-le-	-le-
.	.	.	.	.	.	.	.	.	4c/	-i-	-i-
2D/	-ſon	-le-	2F/	-ſon	-ſon	2A/	-ſon.	-ſon	2d/	-ſon	-ſon
*	*ij	*	*	*ij	*ij	*	*	*	*	*ij	*ij
2D/	e-	-i-	2A/	e-	Chri-	2d\	.	[Chri-	2a\	Chri-	e-
=17-	=17-	=17-	=17-	=17-	=17-	=17-	=17-	=17-	=17-	=17-	=17-
4BB-/	-lei-	-son	1d	-lei-	-ste	2f\	.	-ste	1b-	.	-le-
4C/	.	.	.	.	.	.	.	.	.	.	.
4D/	.	.	.	.	.	2.f\	.	e-	.	.	.
4E/	.	.	.	.	.	.	.	.	.	.	.
2F\	.	.	2c\	.	e-	.	.	.	2a\	.	.
.	.	.	.	.	.	4e\	.	.	.	.	.
2G\	.	.	2B-\	.	-lei-	4d\	.	.	2g\	.	-i-
.	.	.	.	.	.	4c\	.	.	.	.	.
=18-	=18-	=18-	=18-	=18-	=18-	=18-	=18-	=18-	=18-	=18-	=18-
1D	-ſon	.	2A\	-ſon	-ſon	2d\	.	.	2f\	-ste	-son
*	*	*	*	*	*	*	*	*	*custos:b-	*	*
.	.	.	2d\	Chri-	e-	2f\	.	-lei-	2a\	e-	Chri-
!	!	!	!	!	!	!	!	!	!LO:LB:g=original	!	!
*	*	*	*	*	*	*	*	*	*xywh-#155:1431,2875,4249,924	*	*
1r	.	.	4B-\	-ste	-lei-	2g\	.	-son]	1b-	.	-ste
.	.	.	4c\	.	.	.	.	.	.	.	.
.	.	.	4d\	.	.	2G/	chri-	Chri-	.	.	.
*	*	*	*custos:f	*	*	*	*	*	*	*	*
.	.	.	4e\	.	.	.	.	.	.	.	.
!	!	!	!LO:LB:g=original	!	!	!	!	!	!	!	!
*	*	*	*xywh-#518:1388,2802,4214,930	*	*	*	*	*	*	*	*
!	!	!	!LO:MO:mod=*null:null	!	!	!	!	!	!	!	!
*	*	*	*clefC3	*	*	*	*	*	*	*	*
=19-	=19-	=19-	=19-	=19-	=19-	=19-	=19-	=19-	=19-	=19-	=19-
1r	.	.	2f\	.	.	2d\	-ste	-ste	2a\	.	e-
.	.	.	2g\	.	.	2G/	e-	e-	1g	.	-le-
1D	Chri-	Chri-	1d	e-	.	2A/	-lei-	-le-	.	.	.
!	!	!	!	!	!	!	!	!	!LO:SIC:s=2f#i	!	!
.	.	.	.	.	.	2d\	-ſon	-i-	2f\	-lei-	-i-
=20-	=20-	=20-	=20-	=20-	=20-	=20-	=20-	=20-	=20-	=20-	=20-
1G	-ste	-ste	2d\	-le-	-son	4B-/	.	-son	4g\	-son	-son
*	*	*	*	*	*	*	*	*	*	*Xij	*Xij
.	.	.	.	.	.	4c/	.	.	4a\	.	.
.	.	.	2B-/	.	e-	4d\	.	.	4b-\	.	.
*	*	*	*	*	*	*custos:f	*	*	*	*	*
.	.	.	.	.	.	4e\	.	.	4g\	.	.
!	!	!	!	!	!	!LO:LB:g=original	!	!	!	!	!
*	*	*	*	*	*	*xywh-#341:5808,2734,4567,964	*	*	*	*	*
2F\	e-	e-	2c/	.	-le-	2f\	.	.	2a\	.	.
2E-X\	-lei-	-lei-	2c/	-i-	-i-	1g	.	.	2g\	Chri-	Chri-
=21-	=21-	=21-	=21-	=21-	=21-	=21-	=21-	=21-	=21-	=21-	=21-
1D	-ſon	-ſon	2d\	-ſon	-ſon	.	.	.	2b-\	.	-ste
*	*	*	*	*Xij	*Xij	*	*	*	*	*	*
.	.	.	2A/	Chri-	Chri-	4f\	.	.	1a	-ste	e-
.	.	.	.	.	.	4e\	.	.	.	.	.
1r	.	.	1B-	-ste	-ste	2d\	.	.	.	.	.
.	.	.	.	.	.	2d\	.	[e-	2g\	e-	.
*	*Xij	*Xij	*	*	*	*	*	*	*	*	*
=22-	=22-	=22-	=22-	=22-	=22-	=22-	=22-	=22-	=22-	=22-	=22-
1r	.	.	2A/	e-	e-	2c/	.	-le-	2f\	-le-	-le-
.	.	.	2G/	-lei-	-lei-	2B-/	.	-i-	2e\	-i-	-i-
1D	.	[Chri-	2F/	-son	-son	2A/	.	-son]	2d/	-ſon	-ſon
*	*	*	*	*	*	*	*	*	*	*ij	*ij
.	.	.	2A/	.	[Chri-	2d\	chr(i-	Chri-	2a\	e-	Chri-
=23-	=23-	=23-	=23-	=23-	=23-	=23-	=23-	=23-	=23-	=23-	=23-
4BB-/	.	-ste	1d	.	-ste	2f\	-st)e	-ste	1b-	-lei-	-ste
4C/	.	.	.	.	.	.	.	.	.	.	.
4D/	.	.	.	.	.	2.f\	e-	e-	.	.	.
*custos:F	*	*	*	*	*	*	*	*	*	*	*
4E/	.	.	.	.	.	.	.	.	.	.	.
!LO:LB:g=original	!	!	!	!	!	!	!	!	!	!	!
*xywh-#702:1457,2813,4295,1001	*	*	*	*	*	*	*	*	*	*	*
2F\	.	.	2c\	.	e-	.	.	.	2a\	.	e-
.	.	.	.	.	.	4e\	-le-	.	.	.	.
2G\	.	e-	2B-\	.	.	4d\	-y-	.	2.g\	.	-lei-
.	.	.	.	.	.	4c\	-son	.	.	.	.
=24-	=24-	=24-	=24-	=24-	=24-	=24-	=24-	=24-	=24-	=24-	=24-
1D	.	-lei-	1A	.	-lei-	1d	.	-lei-	.	.	.
!	!	!	!	!	!	!	!	!	!LO:SIC:s=8f#iL	!	!
.	.	.	.	.	.	.	.	.	8f/L	.	.
.	.	.	.	.	.	.	.	.	8e/J	.	.
!	!	!	!	!	!	!	!	!	!LO:SIC:s=2f#i	!	!
.	.	.	.	.	.	.	.	.	2f\	.	.
*	*	*	*	*	*	*custos:f	*	*	*	*	*
1GG;l	.	-son.]	1G;l	.	-son.]	1d;<l	.	son.	1g;<l	-ſon	-ſon.
*	*	*	*	*	*	*	*	*	*	*Xij	*Xij
!	!	!	!LO:LB:g=original	!	!	!LO:LB:g=original	!	!	!LO:PB:g=original	!	!
=25||	=25||	=25||	=25||	=25||	=25||	=25||	=25||	=25||	=25||	=25||	=25||
*	*	*	*xywh-#518:5862,414,4612,1105	*	*	*xywh-#342:1449,606,4438,986	*	*	*xywh-#155:5968,579,4590,963	*	*
00r	.	.	1d	Ki-	Ky-	1.f	KI-	Ky-	1.a	KI-	Ky-
.	.	.	2A/	-rie	-rie	.	.	.	.	.	.
.	.	.	2c/	e-	e-	2.e\	-ri-	-ri-	2g\	-ri-	-ri-
=26-	=26-	=26-	=26-	=26-	=26-	=26-	=26-	=26-	=26-	=26-	=26-
.	.	.	2d\	-lei-	-le-	.	.	.	2f\	-e	-e
.	.	.	.	.	.	4d/	-e	.	.	.	.
.	.	.	2G/	-ſon	-i-	1d	e-	-e	2g\	e-	e-
.	.	.	1A	.	-son	.	.	.	1e	-lei-	-lei-
!	!	!	!	!	!	!LO:SIC:s=2c#i	!	!	!	!	!
.	.	.	.	.	.	2c/	-lei-	e-	.	.	.
=27-	=27-	=27-	=27-	=27-	=27-	=27-	=27-	=27-	=27-	=27-	=27-
1G	KI-	Ky-	2.B-/	.	[Ky-	2d\	-ſon	-le-	2d/	-ſon	-ſon
*	*	*	*	*	*	*	*	*	*	*ij	*ij
.	.	.	.	.	.	2g\	.	.	1b-	e-	Ky-
.	.	.	4c/	.	-ri-	.	.	.	.	.	.
2D/	-ri-	-rie	2d\	.	e	2.f\	.	.	.	.	.
2F\	-e	e-	2c\	.	e-	.	.	.	2.a\	-lei-	-ri-
.	.	.	.	.	.	4e\	.	-i-	.	.	.
=28-	=28-	=28-	=28-	=28-	=28-	=28-	=28-	=28-	=28-	=28-	=28-
2G\	e-	-le-	2B-/	.	-lei-	2d\	.	son	.	.	.
.	.	.	.	.	.	.	.	.	4g\	.	.
2C/	-lei-	-i-	2c/	.	.	2e-X\	.	[e-	2.g\	.	-e
1D	-ſon	-ſon	1A	.	.	1d	.	-lei-	.	.	.
!	!	!	!	!	!	!	!	!	!LO:SIC:s=8f#iL	!	!
.	.	.	.	.	.	.	.	.	8f/L	.	.
.	.	.	.	.	.	.	.	.	8e/J	.	.
!	!	!	!	!	!	!	!	!	!LO:SIC:s=2f#i	!	!
.	.	.	.	.	.	.	.	.	2f\	.	.
=29-	=29-	=29-	=29-	=29-	=29-	=29-	=29-	=29-	=29-	=29-	=29-
1G	.	[Ky-	2G/	.	-son]	2B-/	.	-son]	2g\	-ſon	.
*	*	*	*	*	*	*	*	*	*	*Xij	*Xij
.	.	.	2B-/	ki-	Ky-	2d\	ki-	Ky-	4d/	e-	e-
.	.	.	.	.	.	.	.	.	4e/	.	.
2.F\	.	-ri-	4c/	-ri-	-rie	2A/	-ri-	-rie	4f/	.	.
.	.	.	4B-/	-e	.	.	.	.	4g/	.	.
.	.	.	4A/	.	.	2c/	-e	e-	2.a\	.	.
4E\	.	.	4G/	.	.	.	.	.	.	.	.
=30-	=30-	=30-	=30-	=30-	=30-	=30-	=30-	=30-	=30-	=30-	=30-
2D/	.	-e	2F/	.	.	2d/	e-	-le-	.	.	.
.	.	.	.	.	.	.	.	.	4g\	.	.
!	!	!	!	!	!	!LO:TX:t=P:problem=poprawka wysokości	!	!	!	!	!
2E-X\	.	e-	2G/	e-	e-	2G/	-lei-	-i-	1g	.	.
*	*	*	*	*	*	*custos:B-	*	*	*	*	*
1D	.	-lei-	1d	-lei-	-lei-	1A	-ſon	-ſon	.	.	.
!	!	!	!	!	!	!	!	!	!LO:SIC:s=2f#i	!	!
.	.	.	.	.	.	.	.	.	2f\	-lei-	-lei-
!	!	!	!	!	!	!LO:LB:g=original	!	!	!	!	!
*	*	*	*	*	*	*xywh-#342:1531,1435,4328,787	*	*	*	*	*
!	!	!	!	!	!	!LO:MO:mod=*null:null	!	!	!	!	!
*	*	*	*	*	*	*clefC2	*	*	*	*	*
=31-	=31-	=31-	=31-	=31-	=31-	=31-	=31-	=31-	=31-	=31-	=31-
*	*	*	*	*	*	*	*	*	*custos:b-	*	*
1G	.	-son	2G/	-ſon	-ſon	4B-/	e-	e-	2g\	-ſon	-ſon
.	.	.	.	.	.	4c/	.	.	.	.	.
*	*	*	*custos:d	*	*	*	*	*	*	*	*
!	!	!	!	!	!	!	!	!	!LO:TX:t=P:problem=w tym systemie brak bemola przy kluczu	!	!
!	!	!	!	!	!	!	!	!	!LO:LB:g=original	!	!
*	*	*	*	*	*	*	*	*	*xywh-#155:6060,1412,4380,813	*	*
*	*	*	*	*	*	*	*	*	*	*ij	*ij
.	.	.	2g\	ki-	Ky-	4d/	.	.	1b-	Ki-	Ky-
.	.	.	.	.	.	4e/	.	.	.	.	.
!	!	!	!LO:LB:g=original	!	!	!	!	!	!	!	!
*	*	*	*xywh-#518:5950,1371,4275,789	*	*	*	*	*	*	*	*
1r	.	.	2d\	-ri-	-rie	4f\	.	.	.	.	.
.	.	.	.	.	.	4g\	.	.	.	.	.
.	.	.	2f\	-e-	e-	2.a\	.	.	2a\	.	-ri-
=32-	=32-	=32-	=32-	=32-	=32-	=32-	=32-	=32-	=32-	=32-	=32-
0r	.	.	2g\	-lei-	-le-	.	.	.	2b-\	.	-e
.	.	.	.	.	.	4g\	.	.	.	.	.
.	.	.	2c/	-ſon	-i-	1g	.	.	2cc\	.	e-
.	.	.	1d	.	-son	.	.	.	1a	-ri-	-lei-
!	!	!	!	!	!	!LO:SIC:s=2f#i	!	!	!	!	!
.	.	.	.	.	.	2f\	-lei-	-lei-	.	.	.
=33-	=33-	=33-	=33-	=33-	=33-	=33-	=33-	=33-	=33-	=33-	=33-
*custos:D	*	*	*	*	*	*	*	*	*	*	*
1G	.	Ky-	2.B-/	.	[e-	2g\	-ſon	-ſon	2g\	-e	-son
*	*	*	*	*	*	*	*ij	*ij	*	*	*
.	.	.	.	.	.	1b-	Ki-	Ky-	2g\	e-	e-
.	.	.	4c/	.	.	.	.	.	.	.	.
!LO:LB:g=original	!	!	!	!	!	!	!	!	!	!	!
*xywh-#702:5968,626,4458,784	*	*	*	*	*	*	*	*	*	*	*
2D/	.	-rie	2d/	.	.	.	.	.	2.f\	-lei-	-le-
2F\	.	e-	2c/	.	.	2.a\	.	.	.	.	.
.	.	.	.	.	.	.	.	.	4e/	.	.
=34-	=34-	=34-	=34-	=34-	=34-	=34-	=34-	=34-	=34-	=34-	=34-
2G\	.	-le-	2B-/	.	.	.	.	.	2d/	.	.
.	.	.	.	.	.	4g\	.	-ri-	.	.	.
2C/	.	-i-	2c/	.	.	1g	.	-e	2e-X/	.	-i-
2.D/	.	-son	1A	e-	-lei-	.	.	.	1d	-ſon	-ſon
!	!	!	!	!	!	!LO:SIC:s=2.f#i	!	!	!	!	!
.	.	.	.	.	.	2.f\	.	e-	.	.	.
4D/	.	e-	.	.	.	.	.	.	.	.	.
=35-	=35-	=35-	=35-	=35-	=35-	=35-	=35-	=35-	=35-	=35-	=35-
2AA/	.	-lei-	2.c/	-lei-	-son	.	.	.	2a\	Ki-	Ky-
.	.	.	.	.	.	4e/	.	.	.	.	.
2C/	.	.	.	.	.	2.e/	-ri-	.	2g\	.	-ri-
.	.	.	4B-/	-ſon.	.	.	.	.	.	.	.
!	!	!	!	!	!	!	!	!	!LO:TX:t=P:problem=# above	!	!
2D/	.	.	2A/	.	.	.	.	.	2f#X\	.	-e
.	.	.	.	.	.	4d/	.	.	.	.	.
2GG/	.	.	2B-/	.	.	1d	.	.	2g\	.	e-
=36-	=36-	=36-	=36-	=36-	=36-	=36-	=36-	=36-	=36-	=36-	=36-
*lig	*	*	*	*	*	*	*	*	*	*	*
1AA	.	-son]	1A	.	.	.	.	.	1e	-ri-	-lei-
!	!	!	!	!	!	!LO:SIC:s=2c#i	!	!	!	!	!
.	.	.	.	.	.	2c/	.	-lei-	.	.	.
1D	.	.	2r	.	.	2d/	-e	-son	2d/	-e	-son
*	*	*	*	*	*	*custos:e	*	*	*	*	*
.	.	.	2d\	.	Ky-	1f	e-	e-	1a	e-	e-
*Xlig	*	*	*	*	*	*	*	*	*	*	*
!	!	!	!	!	!	!LO:LB:g=original	!	!	!	!	!
=37-	=37-	=37-	=37-	=37-	=37-	=37-	=37-	=37-	=37-	=37-	=37-
*	*	*	*	*	*	*xywh-#342:1593,2154,4184,815	*	*	*	*	*
1r	.	.	2A/	.	-rie	.	.	.	.	.	.
!	!	!	!	!	!	!LO:MO:mod=*null:null	!	!	!	!	!
*	*	*	*	*	*	*clefC3	*	*	*	*	*
*	*	*	*custos:d	*	*	*	*	*	*	*	*
.	.	.	2c\	.	e-	2e\	.	.	2g\	.	.
!	!	!	!LO:LB:g=original	!	!	!	!	!	!	!	!
*	*	*	*xywh-#518:5970,2059,4383,930	*	*	*	*	*	*	*	*
2G\	Ki-	Ky-	1d	.	-lei-	2g\	-lei-	-lei-	2b-\	-lei-	-le-
2D/	-ri-	-rie	.	.	.	2.f\	.	.	2.a\	.	.
=38-	=38-	=38-	=38-	=38-	=38-	=38-	=38-	=38-	=38-	=38-	=38-
2F\	-e-	e-	4c/	.	.	.	.	.	.	.	.
.	.	.	4B-/	.	.	4e\	.	.	4g\	.	.
2G\	-lei-	-lei-	4A/	.	.	4d\	.	.	1g	.	.
.	.	.	4G/	.	.	4c\	.	.	.	.	.
1D	-ſon	-ſon	1A	.	.	1d	-ſon	.	.	.	.
!	!	!	!	!	!	!	!	!	!LO:SIC:s=2f#i	!	!
.	.	.	.	.	.	.	.	.	2f\	.	-i-
*	*	*	*	*	*	*	*Xij	*	*	*	*
=39-	=39-	=39-	=39-	=39-	=39-	=39-	=39-	=39-	=39-	=39-	=39-
!	!	!	!LO:SIC:s=[0G	!	!	!	!	!	!LO:SIC:s=[0g	!	!
2r	.	.	[0G;l	.	-son.	2d\	ki-	-son	[0g;<l	-ſon	-ſon.
*	*	*	*	*	*	*	*	*Xij	*	*	*
2C/	.	[Ky-	.	.	.	2c/	-ri-	Ky-	.	.	.
2GG/	.	-rie	.	.	.	2B-/	-e	-rie	.	.	.
2BB-/	.	e-	.	.	.	2d/	e-	e-	.	.	.
*	*	*	*	*	*	*	*	*	*	*Xij	*Xij
=40-	=40-	=40-	=40-	=40-	=40-	=40-	=40-	=40-	=40-	=40-	=40-
2.C/	.	-le-	0G_	.	.	2c/	-ley-	-lei-	0g_	.	.
.	.	.	.	.	.	1e-X	-ſon	.	.	.	.
4C/	.	-i-	.	.	.	.	.	.	.	.	.
!LO:SIC:s=[1GG	!	!	!	!	!	!	!	!	!	!	!
[1GG;l	.	son.]	.	.	.	.	.	.	.	.	.
.	.	.	.	.	.	4d\	.	.	.	.	.
.	.	.	.	.	.	4c\	.	.	.	.	.
=41-	=41-	=41-	=41-	=41-	=41-	=41-	=41-	=41-	=41-	=41-	=41-
!LO:SIC:s=0GG;]	!	!	!LO:SIC:s=0G;]	!	!	!LO:MO:mod=0d 0Bni;	!	!	!LO:SIC:s=0g;]	!	!
0GG]	.	.	0G]	.	.	1d	.	-ſon.	0g]	.	.
!	!	!	!	!	!	!LO:MO:mod=.	!	!	!	!	!
.	.	.	.	.	.	1B-	.	.	.	.	.
==	==	==	==	==	==	==	==	==	==	==	==
*-	*-	*-	*-	*-	*-	*-	*-	*-	*-	*-	*-
!!!system-decoration: [(*)]
!!LO:MO:ori
!!!RDF**kern: l = terminal long
!!!RDF**kern: > = above
!!!RDF**kern: < = below
!!LO:MO:mod
!! !!!RDF**kern: i = editorial accidental
!!LO:MO:end
!!!filter-modern: shed -e "s/TX(.*):t=P:/tx$1:t=P:/LG" | sic -sq | modori -m | autostem -r | tie -s | humtr -p | shed -e "s/-//B" | shed -e "s/^custos:/Xcustos:/I"
!!!ENC: Mateusz Solarz
!!!END: 2022-03-11
!!!ENC: Jan Barakat
!!!END: 2022-03-14
!!!ENC-modern: Andrzej Kubiczek
!!!END-modern: 2022-07-19
!!!IIIF: https://repozytorium.nifc.pl/islandora/object/pl-kk%3A1/datastream/IIIF/view
!!!ENC-iiif: Jan Barakat
!!!END-iiif: 2022-08-31
!!!YEC: Copyright 2022 Narodowy Instytut Fryderyka Chopina (https://polishscores.org)
!!!YEM: License CC-BY-4.0 (https://creativecommons.org/licenses/by/4.0)
